X: 19855
T: Jessica's
R: polka
M: 2/4
K: Amajor
ef/e/ ce|fe c2|A>B cA|ec B2|
ef/e/ ce|fe c2|A>B cA|FA E2:|
F>B AF|cB A2|ef/e/ ce|ag f2|
ef/e/ ce|fe c2|A>B cA|FA A2:|

